X:386
T: ES RITT EIN JAEGER WOHLGEMUTH
N: E0219
O: Europa, Mitteleuropa, Deutschland, Schlesien ?, Jaegerndorf
R: erzaehlendes Volks - Lied, Mahn -, Moral - Lied, Strafe
M: 2/4
L: 1/16
K: G
D2 | G2A2B2c2 | d2e2d2
B2 | A2e2d2cc | B2A2B2
c2 | B4A4 | B4B2d2 | B4A4 | G4z2

@@@ Tune index: 4036
